X: 154
T: Ağlamaktan Dideden
C: Rifat Bey
O: Turkey
F: http://compmusic.upf.edu/node/140
N: muhayyer--sarki--aksak--aglamaktan_dideden--rifat_bey
N: makam= muhayyer
N: form= sarki
N: usul= aksak = 9/8
M: 9/8
L: 1/16
K: C _2/4B ^3/4f  
Q: 1/4=144
%%MIDI tuningsystem comma53
z2g4a2 a4 a6 | _1/4b4c'3bbc' baa6  | \
w:   |   | 
z2g4_1/4b2 c'3b a6 | _1/4ba bc'ba g2a8z2  | 
w:   |   | 
z2c'4_1/4b2 a2g2 =f2e2 d2 | z2 g4 =f2ed c_1/4BA6  | \
w:   |   | 
z2e4d2 dedc c4 _1/4B2 | 
w:   | 
_1/4BA BcBA G2A8z2  | z2d4e2 e4 e6 | \
w:   |   | 
g3=fe2 d2c3_1/4BA6  | 
w:   | 
z2c4e2 ^f2g2 a2g2 f2 | e3d^f2 g2ac' _1/4baa4z2  | \
w:   |   | 
z2c'4_1/4b2 a2g2 =f2e2 d2 | 
w:   | 
z2 g4 =f2ed c_1/4BA6  | z2e4d2 dedc c4 _1/4B2 | \
w:   |   | 
_1/4BA BcBA G2A8z2  | 
w:   | 
z2d4e2 e4 e6 | g3=fe2 d2c3_1/4BA6  | \
w:   |   | 
z2c4e2 ^f2g2 a2g2 f2 | e3d^f2 g2ac' _1/4baa4z2  | 
w:   |   | 
z2g4a2 ac'_1/4ba a6 | z2 c'2_1/4b2 a2g2 ^f2e4d2  | \
w:   |   | 
z2a2 g2=f2 edc_1/4B A6 | 
w:   | 
z2 e2d2 e2c2 d2c2 _1/4B2A2  | _1/4BABc BAG2 A4 de^fg a2 | 
w:   |   | 
z2 g4 a2ac' _1/4baa6  | z2c'2 _1/4b2a2 g2^f2 e4 d2 | \
w:   |   | 
z2 a2g2 =f2ed c_1/4BA6  | 
w:   | 
z2e2 d2e2 c2d2 c2_1/4B2 A2 | _1/4BA BcBA G2A8z2  | |


